setcps (120/60/4)

-- breaths..
d2 $ n "[<8 9>]/2"
  # s "house"
  # gain 0.9
  # cut 1

d3 $ every 4 (striate "<2,4>")
  $ s "mdrum:0"
  # gain 0.8
  # speed 0.8
  # hpf 2000

d4 $ s "kicks:1*4"
    # gain 1
    # lpf 220

d5 $ s "bas:1"
  # gain 1
  # cut 1
  # lpf 120
  # up "<2 2 1>"

-- chords
d6 $ s "fx:6/4"
  # gain 0.9
  # room 0.7
  # size 0.3
  # speed 0.68

-- more chords
d7 $ stut 8 (1/8) (1/16) $ s "house:2/4"
  # gain 0.7
  # delay 0.2
  # speed 0.6
